X: 1
T:Kitty's Wedding
M:4/4
L:1/8
S:Noel Hill/Tony Linnane
R:Hornpipe
K:D
fe|:d2 Bd A2 FA|BAFA D2 ED|B,DA,B, DFBF|AFDF Egfe|d2 Bd A2 FA|BAFA D2 ED
|B,DA,B, DFBF|AFEF D2 fe:|fg||:afed bafe|d2 fd edBd|DFBA FAde|f2 df e2 f
g|afed bafe|d2 fd edBd|D
FBA FAdf|edBc d2 fg:||
